X: 75
T:To Thee,To Thee. HA.074
M:C
Q:80
C:in Hand C
S:Henry Atkinson's original MS,Hartburn,N'umberland,1694.
R:Air
O:England
A:Hartburn,Northumberland
N:Comments in pencil in the margin which I can't make out.CGP
H:1/4
Z:vmp.Chris Partington.Jan.2004
K:C
g/|ee/e/ cc/c/|GG/G/ d>d|ec c>c|c/d/e/c/ f2|!
ff/f/ ee/e/|dd B>B|cc AA|(B3/2A/4B/4B3/2):|!
|:d/|BG G>G|GG/G/ d>d|ed/c/ c>c|c/d/e/c/ f2|!
ff/f/ ee/e/|dd"qus"ef|c'g a/g/f/e/|d/e/f/g/ ec:|!
|:c'c c'c|c'/b/a/g/ c'c|cc/c/ B>B|GAf2|!
ff e>e|dd (b3/2a/4b/4)|c'g a/g/f/e/|d/e/f/g/ ec|]
